components/ui-node-icon/src/apiColumn/apiColumn.small.svg

<svg width="16" height="16" viewBox="0 0 16 16" fill="none" xmlns="http://www.w3.org/2000/svg">
  <path fill-rule="evenodd" clip-rule="evenodd" d="M9.67556 3.03185C9.93412 3.12881 10.0651 3.41701 9.96816 3.67558L6.96816 11.6756C6.8712 11.9341 6.583 12.0651 6.32444 11.9682C6.06588 11.8712 5.93488 11.583 6.03184 11.3245L9.03184 3.32445C9.1288 3.06589 9.417 2.93489 9.67556 3.03185ZM4.8 3.10001C5.02091 3.2657 5.06569 3.5791 4.9 3.80001L2.125 7.50001L4.9 11.2C5.06569 11.4209 5.02091 11.7343 4.8 11.9C4.57909 12.0657 4.26569 12.0209 4.1 11.8L1.1 7.80001C0.966667 7.62224 0.966667 7.37779 1.1 7.20001L4.1 3.20001C4.26569 2.9791 4.57909 2.93433 4.8 3.10001ZM11.1 3.80003C10.9343 3.57911 10.9791 3.26571 11.2 3.10003C11.4209 2.93434 11.7343 2.97911 11.9 3.20003L14.9 7.20003C15.0333 7.37781 15.0333 7.62225 14.9 7.80003L11.9 11.8C11.7343 12.0209 11.4209 12.0657 11.2 11.9C10.9791 11.7343 10.9343 11.4209 11.1 11.2L13.875 7.50003L11.1 3.80003Z" fill="currentColor"/>
</svg>

<svg xmlns="http://www.w3.org/2000/svg" width="16" height="16" fill="none" viewBox="0 0 16 16">
  <path fill="currentColor" fill-rule="evenodd" d="M9.676 3.032a.5.5 0 0 1 .292.644l-3 8a.5.5 0 0 1-.936-.351l3-8a.5.5 0 0 1 .644-.293ZM4.8 3.1a.5.5 0 0 1 .1.7L2.125 7.5 4.9 11.2a.5.5 0 0 1-.8.6l-3-4a.5.5 0 0 1 0-.6l3-4a.5.5 0 0 1 .7-.1Zm6.3.7a.5.5 0 1 1 .8-.6l3 4a.5.5 0 0 1 0 .6l-3 4a.5.5 0 0 1-.8-.6l2.775-3.7L11.1 3.8Z" clip-rule="evenodd"/>
</svg>
